!!!OTL: PRIPE NINNE SAUSE
!!!ARE: Europa, Mitteleuropa, Deutschland, Oberlausitz
!!!SCT: K0059
!!!YEM: Copyright 1995, estate of Helmut Schaffrath.
**kern
*ICvox
*Ivox
*M2/4
*k[b-]
*F:
=1
{8a
8a
8g
8g
=2
4f
8c}
{8c
=3
8a
8a
8g
8g
=4
4f
8c}
{8c
=5
8a
8a
8a
8cc
=6
8cc
8b-
8b-}
{8a
=7
8g
8g
8g
8b-
=8
8b-
8a
8a}
{8f
=9
8a
8a
8g
16g
16g
=10
4f
4c}
=11
{8a
8a
8g
8g
=12
4f
8c
8r}
==
!!!AGN: Kinder -, Wiegen - Lied
!!!ONB: ESAC (Essen Associative Code) Database: KINDER
!!!AMT: simple duple
!!!AIN: vox
!!!EED: Helmut Schaffrath
!!!EEV: 1.0
*-
